!!!COM: Palestrina, Giovanni Perluigi da
!!!OPR: Sine nomine (1599)
!!!OTL: Agnus II
**kern	**kern	**kern	**kern	**kern
*Ibass	*Itenor	*Icalto	*Icalto	*Icant
!Bassus	!Tenor	!Altus 2	!Altus 1	!Cantus
*clefF4	*clefGv2	*clefG2	*clefG2	*clefG2
*k[]	*k[]	*k[]	*k[]	*k[]
*A:aeo	*A:aeo	*A:aeo	*A:aeo	*A:aeo
*M4/2	*M4/2	*M4/2	*M4/2	*M4/2
=1	=1	=1	=1	=1
0r	0r	0r	1a	0r
.	.	.	1g	.
=2	=2	=2	=2	=2
0r	0r	1r	2f	0r
.	.	.	2d	.
.	.	1a	1f	.
=3	=3	=3	=3	=3
0r	0r	1g	1e	0r
.	.	2f	4d	.
.	.	.	4e	.
.	.	2d	4f	.
.	.	.	4g	.
=4	=4	=4	=4	=4
1A	0r	2f	4a	0r
.	.	.	4b	.
.	.	2.e	2cc	.
1G	.	.	2b	.
.	.	4d	.	.
.	.	2B	2g	.
=5	=5	=5	=5	=5
2F	0r	2c	2a	0r
2D	.	2.d	2.b	.
1F	.	.	.	.
.	.	4c	4a	.
.	.	2A	[2a	.
=6	=6	=6	=6	=6
1E	1e	1B	2a]	0r
.	.	.	2g#	.
2F	1d	2A	2a	.
2D	.	2a	2f	.
=7	=7	=7	=7	=7
1A	1c	2a	2e	0r
.	.	2.cc	2a	.
2.F	1A	.	2a	.
.	.	4b	.	.
.	.	[2a	[2cc	.
4G	.	.	.	.
=8	=8	=8	=8	=8
1A	1c	4a]	4cc]	1r
.	.	4g	4b	.
.	.	4f	1a	.
.	.	4e	.	.
1r	1B	1d	.	2r
.	.	.	2g#	[2dd
=9	=9	=9	=9	=9
2r	2A	1e	2.a	2dd]
1A	2r	.	.	1cc
.	.	.	4g	.
.	1r	2c	4e	.
.	.	.	4f	.
2G	.	2d	[2g	[2b
=10	=10	=10	=10	=10
2.E	2r	2.e	4g]	2b]
.	.	.	4a	.
.	1e	.	2.b	1g
4F	.	8d	.	.
.	.	8c	.	.
1G	.	1B	.	.
.	.	.	4a	.
.	2d	.	4g	[2b
.	.	.	4f	.
=11	=11	=11	=11	=11
1A	1c	2r	1e	2b]
.	.	1e	.	1a
1E	1B	.	1r	.
.	.	2e	.	2g
=12	=12	=12	=12	=12
2.D	1d	1.f	2r	0r
.	.	.	1a	.
4E	.	.	.	.
2F	1c	.	.	.
2C	.	2e	[2g	.
=13	=13	=13	=13	=13
1G	1B	2d	4g]	1dd
.	.	.	4f	.
.	.	2g	2d	.
2r	2A	2a	2e	2cc
[2G	2B	2g	2d	[2b
=14	=14	=14	=14	=14
2G]	0r	2d	2r	2b]
2F	.	1f	1d	1a
2D	.	.	.	.
2E	.	2g	2c	[2cc
=15	=15	=15	=15	=15
2F	0r	2a	2A	2cc]
2G	.	4g	2B	1b
.	.	4f	.	.
2A	.	2e	2c	.
2D	.	2f	2d	[2a
=16	=16	=16	=16	=16
1E	2r	2.e	1B	2a]
.	1e	.	.	2g#
.	.	4d	.	.
1A	.	2c	2A	1a
.	[2f	2A	2c	.
=17	=17	=17	=17	=17
1B-	2f]	1r	1d	0r
.	2d	.	.	.
2G	1e	2r	2B-	.
2A	.	2a	2c	.
=18	=18	=18	=18	=18
4D	1f	1a	2d	0r
4E	.	.	.	.
4F	.	.	2A	.
4G	.	.	.	.
4A	1e	2a	1c	.
4B	.	.	.	.
[2c	.	2g	.	.
=19	=19	=19	=19	=19
2c]	1d	1g	1G	1dd
2B	.	.	.	.
2.c	2c	1e	1g	1ee
.	2r	.	.	.
4B	.	.	.	.
=20	=20	=20	=20	=20
2A	0r	2r	2a	2cc
2D	.	2a	2f	1dd
4G	.	1b	1g	.
4F	.	.	.	.
4E	.	.	.	[2ee
4D	.	.	.	.
=21	=21	=21	=21	=21
2C	1r	2cc	2g	2ee]
2D	.	2a	2f	1dd
2.E	2r	1g	2e	.
.	[2e	.	2e	[2cc
4F	.	.	.	.
=22	=22	=22	=22	=22
1G	2e]	2.g	1r	2cc]
.	2d	.	.	2b
.	.	4f	.	.
1r	2c	2e	2r	1r
.	2B	2d	[2g	.
=23	=23	=23	=23	=23
2r	1A	1c	2g]	0r
1c	.	.	2f	.
.	2G	1g	2e	.
2B	2r	.	2d	.
=24	=24	=24	=24	=24
2A	0r	2r	2c	1r
2G	.	1g	2B	.
1D	.	.	2A	1dd
.	.	2f	2a	.
=25	=25	=25	=25	=25
0r	0r	2.e	2.g	2cc
.	.	.	.	2b
.	.	4d	4f	.
.	.	2c	2e	2a
.	.	2B	2d	[2g
=26	=26	=26	=26	=26
2r	1r	1A	1c	2g]
1c	.	.	.	2f#
.	1g	1G	1d	1r
2B	.	.	.	.
=27	=27	=27	=27	=27
1A	2f	4c	2c	0r
.	.	4d	.	.
.	1e	4e	1cc	.
.	.	4f	.	.
1G	.	1g	.	.
.	[2d	.	2b	.
=28	=28	=28	=28	=28
2.F	2d]	1a	2a	1r
.	1c	.	2f	.
4E	.	.	.	.
1D	.	1r	2.f	2r
.	2B	.	.	[2ff
.	.	.	4g	.
=29	=29	=29	=29	=29
1C	1c	2r	2a	2ff]
.	.	2cc	2.g	2ee
1r	2r	2b	.	1dd
.	.	.	4f	.
.	[2f	[2a	4d	.
.	.	.	4e	.
=30	=30	=30	=30	=30
2r	2f]	2a]	2f	1cc
2A	1e	2a	2c	.
2E	.	1g	1r	1b
2G	2d	.	.	.
=31	=31	=31	=31	=31
2A	2c	2f	1r	2a
2.G	1B	1e	.	1b
.	.	.	2r	.
4E	.	.	.	.
2F	2A	2d	[2a	2r
=32	=32	=32	=32	=32
2E	1B	1e	2a]	1ee
2E	.	.	2g	.
2F	2A	1r	2a	1dd
2G	2B	.	2g	.
=33	=33	=33	=33	=33
2C	2e	1r	1g	2cc
2G	2d	.	.	2b
1A	1c	2r	1e	1a
.	.	[2e	.	.
=34	=34	=34	=34	=34
2E	2B	2e]	1r	2g#
2F	2A	2d	.	1a
1E	1B	1e	2r	.
.	.	.	[2e	2g#
=35	=35	=35	=35	=35
1AA	[0A	1c	2e]	[0a
.	.	.	2d	.
[1A	.	[1cc	2c	.
.	.	.	2B	.
=36	=36	=36	=36	=36
2A]	0A]	2cc]	2A	0a]
2G	.	2b	2B	.
2F	.	2a	1c	.
2E	.	2g	.	.
=37	=37	=37	=37	=37
0D	[0A	2f	2d	[0a
.	.	2e	2e	.
.	.	1d	1f	.
=38	=38	=38	=38	=38
0A	0A]	0c#	0e	0a]
==	==	==	==	==
*-	*-	*-	*-	*-
!!!CDT: 1525/^1526/-1594/2/2
!!!OCY: Italia
!!!AGN: Mass (Canonic)
!!!AST: renaissance, vocal
!!!ASW: Antiphon
!!!PWK: Masses, Book 9
!!!RNB: Cadence finals: D
!!!YOR: Le Opere Complete, v. 25, p. 93
!!!YOO: Rome, Italy: Fratelli Scalera
!!!END: 1992//
!!!EED: John Miller
!!!YEC: Copyright 2000, John Miller
!!!YEN: United States of America
!!!YEM: Rights to all derivative electronic formats reserved.
!!!YEM: Refer to licensing agreement for further details.
!!!YEM: This file must be accompanied by the licensing agreement.
!!!YEM: A copy of the licensing agreement may be found at http://www.music-cog.ohio-state.edu/HumdrumDatabases/Palestrina/license.txt
!!!EMD: converted to Humdrum by Bret Aarden
